telier/img/adv3.svg

<svg width="71" height="71" viewBox="0 0 71 71" fill="none" xmlns="http://www.w3.org/2000/svg">
<g clip-path="url(#clip0_7_1456)">
<path d="M64.3438 8.87504H60.7938C52.102 8.86475 43.6705 5.90823 36.8757 0.488169C36.4839 0.178633 35.9993 0.0102539 35.5 0.0102539C35.0008 0.0102539 34.5161 0.178633 34.1244 0.488169C27.3296 5.90823 18.898 8.86475 10.2063 8.87504H6.65627C6.06782 8.87504 5.50348 9.1088 5.08738 9.5249C4.67128 9.941 4.43752 10.5053 4.43752 11.0938V29.7313C4.38738 38.9687 7.32103 47.9754 12.8019 55.4112C18.2829 62.847 26.0181 68.3145 34.8566 71C35.2774 71.1185 35.7227 71.1185 36.1435 71C44.982 68.3145 52.7172 62.847 58.1981 55.4112C63.679 47.9754 66.6127 38.9687 66.5625 29.7313V11.0938C66.5625 10.5053 66.3288 9.941 65.9127 9.5249C65.4966 9.1088 64.9322 8.87504 64.3438 8.87504ZM62.125 29.7313C62.1768 37.903 59.6238 45.8788 54.8363 52.5015C50.0489 59.1242 43.2759 64.0494 35.5 66.5625C27.7242 64.0494 20.9512 59.1242 16.1637 52.5015C11.3762 45.8788 8.8232 37.903 8.87502 29.7313V13.3125H10.2063C19.305 13.3039 28.1645 10.3974 35.5 5.01442C42.8356 10.3974 51.6951 13.3039 60.7938 13.3125H62.125V29.7313Z" fill="#242424"/>
</g>
<defs>
<clipPath id="clip0_7_1456">
<rect width="71" height="71" fill="white"/>
</clipPath>
</defs>
</svg>

<svg width="71" height="71" fill="none" xmlns="http://www.w3.org/2000/svg"><g clip-path="url(#clip0_7_1456)"><path d="M64.344 8.875h-3.55A38.429 38.429 0 0136.876.488a2.219 2.219 0 00-2.752 0 38.429 38.429 0 01-23.918 8.387h-3.55a2.219 2.219 0 00-2.218 2.219V29.73A42.889 42.889 0 0034.857 71c.42.118.866.118 1.287 0a42.888 42.888 0 0030.419-41.269V11.094a2.219 2.219 0 00-2.22-2.219zm-2.219 20.856A38.451 38.451 0 0135.5 66.562a38.45 38.45 0 01-26.625-36.83v-16.42h1.331A42.822 42.822 0 0035.5 5.014a42.822 42.822 0 0025.294 8.299h1.331V29.73z" fill="#242424"/></g><defs><clipPath id="clip0_7_1456"><path fill="#fff" d="M0 0h71v71H0z"/></clipPath></defs></svg>
